!!!!SEGMENT: pl-kk--kk-i-62--001-001_anonim-missa-kyrie.krn
!!!id: 17xx:2250
!!!COM: Anonim
!!!OTL: Missa – Kyrie
!!!PDT:
!!!SMS-siglum: PL-Kk
!!!SMS-shelfmark: Kk.I.62
!!!NIFC-rismID: 1001157167
!!!URL-scan: http://repozytorium.nifc.pl/skany/pl-kk-nut--i-62
!!!ONB-nifc: UWAGA: w zbiorze: 001 – Missa i 002 – Ut detus ex Agni throno. Części Mszy (001): 1. Kyrie, 2. Gloria, 3. Credo, 4. Sanctus, 5. Benedictus, 6. Agnus Dei, 7. Dona nobis.
!!!SMS-variant:
!!!SMS-altvar:
**kern	**dynam	**kern	**dynam	**kern	**text	**kern	**text	**kern	**text	**dynam	**kern	**text
*part6	*part6	*part5	*part5	*part4	*part4	*part3	*part3	*part2	*part2	*part2	*part1	*part1
*staff6	*	*staff5	*	*staff4	*staff4	*staff3	*staff3	*staff2	*staff2	*	*staff1	*staff1
*I"Baſso Accompagnato.	*	*I"Contra Baſso.	*	*I"Baſso	*	*I"Tenore	*	*I"Alto	*	*	*I"Canto	*
*I'B Acc	*	*I'cb	*	*I'B	*	*I'T	*	*I'A	*	*	*I'C	*
*clefF4	*	*clefF4	*	*clefF4	*	*clefC4	*	*clefC3	*	*	*clefC1	*
*k[]	*	*k[]	*	*k[]	*	*k[]	*	*k[]	*	*	*k[]	*
*M2/2	*	*M2/2	*	*M2/2	*	*M2/2	*	*M2/2	*	*	*M2/2	*
*met(c|)	*	*met(c|)	*	*met(c|)	*	*met(c|)	*	*met(c|)	*	*	*met(c|)	*
*all\right	*	*all\right	*	*all\right	*	*all\right	*	*all\right	*	*	*all\right	*
=1	=1	=1	=1	=1	=1	=1	=1	=1	=1	=1	=1	=1
*	*	*	*	*	*	*2\right	*	*2\right	*	*	*2\right	*
!LO:TX:a:t=Lento	!LO:DY:b	!LO:TX:a:t=Lento	!LO:DY:b	!LO:TX:a:t=Lento	!	!LO:TX:a:t=Lento	!	!LO:TX:a:t=Lento.	!	!	!LO:TX:a:t=Lento	!
4C/	f	2C/	f	(4C/	Ky-	2c\	Ky-	2g\	Ky-	.	2ee\	Ky-
4E\	.	.	.	4E\	.	.	.	.	.	.	.	.
4G\	.	4E/	.	4G\	-ri-	2c\	-rie	2g\	-rie	.	2ee\	-rie
4c\	.	4C/	.	4c\)	.	.	.	.	.	.	.	.
=2	=2	=2	=2	=2	=2	=2	=2	=2	=2	=2	=2	=2
*	*	*	*	*2\right	*	*	*	*	*	*	*	*
1G	.	2.GG/	.	2G\	-e	2B\	E-	(4b\	e-	.	(4dd\	e-
.	.	.	.	.	.	.	.	4a\	.	.	4cc\	.
.	.	.	.	2G\	E-	2B\	-lei-	4g\	.	.	4b\	.
.	.	4G\	.	.	.	.	.	4f\)	.	.	4a\)	.
=3	=3	=3	=3	=3	=3	=3	=3	=3	=3	=3	=3	=3
1GG	.	4E/	.	(4E/	-lei-	1B	.	(4g\	-lei-	.	1g	-lei-
.	.	4D/	.	4D/	.	.	.	4f\	.	.	.	.
.	.	4C/	.	4C/)	.	.	.	4e\	.	.	.	.
.	.	4BB/	.	4BB/	.	.	.	4d\)	.	.	.	.
=4	=4	=4	=4	=4	=4	=4	=4	=4	=4	=4	=4	=4
4C/	.	1C	.	4C/	.	1E	.	1g	.	.	4e/	.
4E\	.	.	.	(4E\	.	.	.	.	.	.	4g/	.
4G\	.	.	.	4G\	.	.	.	.	.	.	4cc\	.
4c\	.	.	.	4c\)	.	.	.	.	.	.	4ee\	.
!	!	!LO:LB:g=original	!	!LO:LB:g=original	!	!	!	!	!	!	!	!
=5	=5	=5	=5	=5	=5	=5	=5	=5	=5	=5	=5	=5
4r;	.	4ryy;	.	4r;	.	4.e;\	.	4r;	.	.	4.gg;\	.
!	!	!	!LO:DY:b	!	!	!	!	!	!	!	!	!
8.r	.	8.r	f	8.r	.	.	.	8.r	.	.	.	.
.	.	.	.	.	.	8d\	.	.	.	.	8ff\	.
!	!LO:DY:b	!	!	!	!	!	!	!	!	!	!	!
16G|\	ff	16G|\	.	16G\	.	.	.	16b\	.	.	.	.
4C/	.	4C/	.	4C/	-son	4c\	-son	4g\	-son	.	4ee\	-son
4r;	.	4r;	.	4r;	.	4r;	.	4r;	.	.	4r;	.
!LO:LB:g=original	!	!	!	!	!	!LO:LB:g=original	!	!	!	!	!	!
=6||	=6||	=6||	=6||	=6||	=6||	=6||	=6||	=6||	=6||	=6||	=6||	=6||
*^	*	*	*	*	*	*	*	*	*	*	*	*
(<4F/	1GG	.	2GG/	.	(4F\	Ky-	2B\	Ky-	1g	Ky-	.	1dd	Ky-
4G/	.	.	.	.	4G\	.	.	.	.	.	.	.	.
4F/	.	.	4G\	.	4F\	-ri-	2B\	-rie	.	.	.	.	.
4G/)	.	.	4F\	.	4G\)	.	.	.	.	.	.	.	.
=7	=7	=7	=7	=7	=7	=7	=7	=7	=7	=7	=7	=7	=7
(<4E/	1C	.	2C/	.	(4E/	-e	2G/	E-	(4g\	-ri-	.	2cc\	-ri-
4C/	.	.	.	.	4C/	.	.	.	4e\	.	.	.	.
*	*	*	*2\right	*	*	*	*	*	*	*	*	*	*
4E/	.	.	2c\	.	4E/	E-	2G/	-lei-	4g\	-e	.	2cc\	-e
4C/)	.	.	.	.	4C/)	.	.	.	4e\)	.	.	.	.
!	!	!	!	!	!	!	!	!	!LO:LB:g=original	!	!	!	!
=8	=8	=8	=8	=8	=8	=8	=8	=8	=8	=8	=8	=8	=8
1G	1GG	.	2GG/	.	1G	-lei-	1B	.	(4f\	E-	.	(4dd\	E-
.	.	.	.	.	.	.	.	.	4g\	.	.	4ee\	.
.	.	.	2G\	.	.	.	.	.	4f\	.	.	4dd\	.
.	.	.	.	.	.	.	.	.	4g\)	.	.	4ee\)	.
!	!	!	!	!	!	!	!	!	!	!	!	!LO:LB:g=original	!
=9	=9	=9	=9	=9	=9	=9	=9	=9	=9	=9	=9	=9	=9
4C'</	1C	.	2C/	.	4C/	.	2.c\	.	(4e\	-lei-	.	2.g/	-lei-
4E'</	.	.	.	.	(4E\	.	.	.	4g\	.	.	.	.
4G'</	.	.	4E/	.	4G\	.	.	.	4e\	.	.	.	.
4c'</	.	.	4C/	.	4c\)	.	4G/	.	4g\)	.	.	4ee\	.
!	!	!	!	!	!LO:LB:g=original	!	!	!	!	!	!	!	!
=10	=10	=10	=10	=10	=10	=10	=10	=10	=10	=10	=10	=10	=10
[1G	[1GG	.	2GG/	.	[1G	.	4B\	.	2d\	.	.	4dd\	.
.	.	.	.	.	.	.	4A\	.	.	.	.	4cc\	.
.	.	.	2G\	.	.	.	4G\	.	2f\	.	.	4b\	.
.	.	.	.	.	.	.	4A\	.	.	.	.	4cc\	.
=11	=11	=11	=11	=11	=11	=11	=11	=11	=11	=11	=11	=11	=11
1G]	1GG]	.	2GG/	.	1G]	.	4B\	.	1g	.	.	4dd\	.
.	.	.	.	.	.	.	4c\	.	.	.	.	4ee\	.
!	!	!	!LO:LB:g=original	!	!	!	!	!	!	!	!	!	!
=-	=-	=-	=-	=-	=-	=-	=-	=-	=-	=-	=-	=-	=-
.	.	.	2ryy	.	.	.	4d\	.	.	.	.	2ff\	.
.	.	.	.	.	.	.	4B\	.	.	.	.	.	.
*v	*v	*	*	*	*	*	*	*	*	*	*	*	*
=12	=12	=12	=12	=12	=12	=12	=12	=12	=12	=12	=12	=12
4C/	.	4C/	.	4C/	-son	4G/	-son	4g\	.	.	4ee\	.
4r	.	4r	.	4r	.	4r	.	8a\L	.	.	8ff\L	.
.	.	.	.	.	.	.	.	8f\J	.	.	8dd\J	.
!	!	!	!	!	!	!LO:LB:g=original	!	!	!	!	!	!
=-	=-	=-	=-	=-	=-	=-	=-	=-	=-	=-	=-	=-
4r	.	4r	.	4r	.	4r	.	4e\	.	.	4cc\	.
4G\	.	4G\	.	4G\	E-	4F/	E-	4d\	.	.	4b\	.
!LO:LB:g=original	!	!	!	!	!	!	!	!	!	!	!	!
=13	=13	=13	=13	=13	=13	=13	=13	=13	=13	=13	=13	=13
*^	*	*	*	*	*	*	*	*	*	*	*	*
4C/	1C	.	2C/	.	(4C/	-lei-	2G/	-lei-	2e\	-son	.	2cc\	-son
4E/	.	.	.	.	4E\	.	.	.	.	.	.	.	.
4G/	.	.	4E/	.	4G\	.	2c\	.	2g\	E-	.	2b-X\	E-
4c/	.	.	4C/	.	4c\)	.	.	.	.	.	.	.	.
*v	*v	*	*	*	*	*	*	*	*	*	*	*	*
=14	=14	=14	=14	=14	=14	=14	=14	=14	=14	=14	=14	=14
4F\	.	4D\	.	(4F\	.	4A\	.	(2f\	-lei-	.	(2a\	-lei-
4D\	.	4F\	.	4D\	.	4f\	.	.	.	.	.	.
4G\	.	2GG/	.	4G\	.	4e\	.	2e\)	.	.	2bnX\)	.
4GG/	.	.	.	4GG/)	.	4d\	.	.	.	.	.	.
=15	=15	=15	=15	=15	=15	=15	=15	=15	=15	=15	=15	=15
4C/	.	4C/	.	4C/	-son	4e\	-son	4e\	.	.	4cc\	.
4r	.	4r	.	4r	.	4r	.	8f\L	.	.	8a\L	.
.	.	.	.	.	.	.	.	8a\J	.	.	8ff\J	.
!	!	!	!	!LO:LB:g=original	!	!	!	!	!	!	!	!
=-	=-	=-	=-	=-	=-	=-	=-	=-	=-	=-	=-	=-
4r	.	4r	.	2r	.	2r	.	4g\	.	.	(4ee\	.
!	!LO:DY:b	!	!	!	!	!	!	!	!	!	!	!
4GG/	f	4G\	.	.	.	.	.	4f\	.	.	4dd\)	.
=16	=16	=16	=16	=16	=16	=16	=16	=16	=16	=16	=16	=16
4C/	.	4c\	.	(4C/	E-	4c/	E-	1g	.	.	2ee\	-son
4E/	.	4G\	.	4E\	.	4G/	.	.	.	.	.	.
4G/	.	4E\	.	4G\	.	4E/	.	.	.	.	2ee\	E-
4c/	.	4C/	.	4c\)	.	4C/	.	.	.	.	.	.
!	!	!	!	!	!	!	!	!LO:LB:g=original	!	!	!	!
=17	=17	=17	=17	=17	=17	=17	=17	=17	=17	=17	=17	=17
4F\	.	2D/	.	(4F\	lei-	4D/	-lei-	1f	.	.	(2dd\	-lei-
4D\	.	.	.	4D\	.	4F/	.	.	.	.	.	.
4G\	.	2GG/	.	4G\	.	4B\	.	.	.	.	2b\)	.
4GG/	.	.	.	4GG/)	.	4d\	.	.	.	.	.	.
=18	=18	=18	=18	=18	=18	=18	=18	=18	=18	=18	=18	=18
!LO:N:vis=0	!	!LO:N:vis=0	!	!	!	!	!	!	!	!	!	!
1C;	.	1C;	.	1C;	-son	1c	-son	1g;<	-son	.	1ee	son
!LO:LB:g=original	!	!	!	!LO:LB:g=original	!	!LO:LB:g=original	!	!	!	!	!	!
=19||	=19||	=19||	=19||	=19||	=19||	=19||	=19||	=19||	=19||	=19||	=19||	=19||
*k[b-]	*	*k[b-]	*	*k[b-]	*	*k[b-]	*	*k[b-]	*	*	*k[b-]	*
*M3/4	*	*M3/4	*	*M3/4	*	*M3/4	*	*M3/4	*	*	*M3/4	*
*met(3)	*	*met(3)	*	*met(3)	*	*met(3)	*	*met(3)	*	*	*met(3)	*
!LO:TX:t=Chri	!	!	!	!	!	!	!	!	!	!	!	!
!LO:TX:a:t=Andte molto.	!LO:DY:b	!LO:TX:a:t=<..ri\n..>	!	!LO:TX:a:t=Andte	!	!LO:TX:a:B:t=Christe a B&colon; A&colon; B&colon; Tacet	!	!LO:TX:a:t=Andte	!	!	!LO:TX:a:t=Andte	!
8qqFF/	fp	.	.	.	.	.	.	.	.	.	.	.
*2\right	*	*	*	*	*	*	*	*	*	*	*	*
*tremolo	*	*	*	*	*	*	*	*	*	*	*	*
8F\L	.	2.ryy	.	4F\	Chri-	2.ryy	.	4a\	Chri-	.	4cc\	Chris-
8F\	.	.	.	.	.	.	.	.	.	.	.	.
8F\	.	.	.	4F\	-ste	.	.	4a\	-ste	.	4cc\	-te
8F\	.	.	.	.	.	.	.	.	.	.	.	.
8F\	.	.	.	4F\	E-	.	.	4b-\	E-	.	4dd\	E-
8F\J	.	.	.	.	.	.	.	.	.	.	.	.
=20	=20	=20	=20	=20	=20	=20	=20	=20	=20	=20	=20	=20
8qqFF/	.	.	.	.	.	.	.	8qqcc/	.	.	8qqee-X/	.
8F\L	.	2.ryy	.	4F\	-lei-	2.ryy	.	4b-\	-lei-	.	4dd\	-lei-
8F\	.	.	.	.	.	.	.	.	.	.	.	.
8F\	.	.	.	4F\	-son	.	.	4a\	-son	.	4cc\	-son
8F\	.	.	.	.	.	.	.	.	.	.	.	.
8F\	.	.	.	4F\	Chri-	.	.	4a\	E-	.	4ff\	E-
8F\J	.	.	.	.	.	.	.	.	.	.	.	.
*Xtremolo	*	*	*	*	*	*	*	*	*	*	*	*
=21	=21	=21	=21	=21	=21	=21	=21	=21	=21	=21	=21	=21
4C/	.	2.ryy	.	4C/	-ste	2.ryy	.	(4.a\	-lei-	.	(4.ff\	-lei-
4r	.	.	.	4r	.	.	.	.	.	.	.	.
.	.	.	.	.	.	.	.	16g\LL	.	.	16ee\LL	.
.	.	.	.	.	.	.	.	16a\JJ)	.	.	16ff\JJ)	.
8C/L	.	.	.	8C/L	E-	.	.	8b-\L	.	.	8gg\L	.
8E/J	.	.	.	8E/J	.	.	.	8g\J	.	.	8b-\J	.
!	!	!	!	!LO:LB:g=original	!	!	!	!	!	!	!	!
=22	=22	=22	=22	=22	=22	=22	=22	=22	=22	=22	=22	=22
.	.	.	.	.	.	.	.	8qqa/	.	.	8qqcc/	.
4F\	.	2.ryy	.	4F\	-lei-	2.ryy	.	4g\	.	.	4b-\	.
4FF/	.	.	.	4FF/	-son	.	.	4f\	-son	.	4a\	-son
4r	.	.	.	4r	.	.	.	4r	.	.	4r	.
=23	=23	=23	=23	=23	=23	=23	=23	=23	=23	=23	=23	=23
!	!LO:DY:b	!	!	!	!	!	!	!	!	!	!	!
8qqFF/	fp	.	.	.	.	.	.	.	.	.	.	.
*tremolo	*	*	*	*	*	*	*	*	*	*	*	*
8F\L	.	2.ryy	.	4r	.	2.ryy	.	8.b-\L	Chri-	.	8.dd\L	Chri-
8F\	.	.	.	.	.	.	.	.	.	.	.	.
.	.	.	.	.	.	.	.	16cc\Jk	.	.	16ee-X\Jk	.
!	!	!	!	!	!	!	!	!	!	!	!LO:LB:g=original	!
=-	=-	=-	=-	=-	=-	=-	=-	=-	=-	=-	=-	=-
8F\	.	.	.	4F\	Chris-	.	.	4b-\	-ste	.	4dd\	-ste
8F	.	.	.	.	.	.	.	.	.	.	.	.
8F\	.	.	.	4FF/	-te	.	.	4r	.	.	4r	.
8F\J	.	.	.	.	.	.	.	.	.	.	.	.
!LO:LB:g=original	!	!	!	!	!	!	!	!LO:LB:g=original	!	!	!	!
=24	=24	=24	=24	=24	=24	=24	=24	=24	=24	=24	=24	=24
*	*	*	*	*	*	*	*	*	*ij	*	*	*ij
8F\L	.	2.ryy	.	4r	.	2.ryy	.	8.a\L	Chri-	.	8.cc\L	Chri-
8F\	.	.	.	.	.	.	.	.	.	.	.	.
.	.	.	.	.	.	.	.	16b-\Jk	.	.	16dd\Jk	.
*	*	*	*	*	*ij	*	*	*	*	*	*	*
8F\	.	.	.	4F\	Chris-	.	.	4a\	-ste	.	4cc\	-ste
8F\	.	.	.	.	.	.	.	.	.	.	.	.
*	*	*	*	*	*	*	*	*	*Xij	*	*	*Xij
8F\	.	.	.	4FF/	-te	.	.	4r	.	.	4r	.
8F\J	.	.	.	.	.	.	.	.	.	.	.	.
*	*	*	*	*	*Xij	*	*	*	*	*	*	*
=25	=25	=25	=25	=25	=25	=25	=25	=25	=25	=25	=25	=25
8C/L	.	2.ryy	.	(>4C/	E-	2.ryy	.	4g\	E-	.	4b-\	E-
8C/	.	.	.	.	.	.	.	.	.	.	.	.
8C/	.	.	.	4E\	.	.	.	(4g\	-lei-	.	(4b-\	-lei-
8C/J	.	.	.	.	.	.	.	.	.	.	.	.
*Xtremolo	*	*	*	*	*	*	*	*	*	*	*	*
8F\L	.	.	.	4F\)	.	.	.	4f\)	.	.	4a\)	.
8A\J	.	.	.	.	.	.	.	.	.	.	.	.
=26	=26	=26	=26	=26	=26	=26	=26	=26	=26	=26	=26	=26
4c\	.	2.ryy	.	4c\	-lei-	2.ryy	.	2e\	-son	.	2g/	-son
4C/	.	.	.	4C/	-son	.	.	.	.	.	.	.
4r	.	.	.	4r	.	.	.	4r	.	.	4r	.
!	!	!	!	!LO:LB:g=original	!	!	!	!	!	!	!	!
=27	=27	=27	=27	=27	=27	=27	=27	=27	=27	=27	=27	=27
8qqC|</	.	.	.	.	.	.	.	.	.	.	.	.
*tremolo	*	*	*	*	*	*	*	*	*	*	*	*
8C/L	.	2.ryy	.	4r	.	2.ryy	.	8e\L	Chri-	.	(8g\L	Chri-
8C/	.	.	.	.	.	.	.	8f\J	.	.	8a\J	.
8C/	.	.	.	4r	.	.	.	8g\L	-ste	.	8b-\L	-ste
8C/	.	.	.	.	.	.	.	8a\J	.	.	8cc\J	.
8C/	.	.	.	8.r	.	.	.	8b-\L	E-	.	8dd\L	E-
8C/J	.	.	.	.	.	.	.	8g\J	.	.	8b-\J)	.
*Xtremolo	*	*	*	*	*	*	*	*	*	*	*	*
.	.	.	.	16E\	Chris-	.	.	.	.	.	.	.
=28	=28	=28	=28	=28	=28	=28	=28	=28	=28	=28	=28	=28
.	.	.	.	.	.	.	.	.	.	.	8qqcc/	.
8r	.	2.ryy	.	(>4F\	-te	2.ryy	.	4g\	-lei-	.	4b-\	-lei-
8F\	.	.	.	.	.	.	.	.	.	.	.	.
8r	.	.	.	4C/	.	.	.	4f\	-son	.	4a\	-son
8C/	.	.	.	.	.	.	.	.	.	.	.	.
!LO:TX:a:t=P:problem:mixedbeam	!	!	!	!	!	!	!	!	!	!	!	!
8FF/L	.	.	.	4FF/	E-	.	.	4r	.	.	4r	.
8F\J	.	.	.	.	.	.	.	.	.	.	.	.
=29	=29	=29	=29	=29	=29	=29	=29	=29	=29	=29	=29	=29
*tremolo	*	*	*	*	*	*	*	*	*	*	*	*
8C/L	.	2.ryy	.	4C/)	-lei-	2.ryy	.	8e\L	Chri-	.	(<8g/L	Chri-
8C/	.	.	.	.	.	.	.	8d\J	.	.	8f#X/J	.
8C/	.	.	.	4C/	-son	.	.	8e\L	-ste	.	8g/L	-ste
8C/	.	.	.	.	.	.	.	8fn\J	.	.	8a/J	.
8C/	.	.	.	8.r	.	.	.	4g\	E-	.	8b-\L	E-
8C/J	.	.	.	.	.	.	.	.	.	.	8cc\J)	.
*Xtremolo	*	*	*	*	*	*	*	*	*	*	*	*
.	.	.	.	16E|\	E-	.	.	.	.	.	.	.
=30	=30	=30	=30	=30	=30	=30	=30	=30	=30	=30	=30	=30
!LO:TX:a:t=P:problem:mixedbeam	!	!	!	!	!	!	!	!	!	!	!	!
8F/L	.	2.ryy	.	(>4F\	-lei-	2.ryy	.	4g\	lei-	.	4b-\	-lei-
8F/	.	.	.	.	.	.	.	.	.	.	.	.
8C/	.	.	.	4C/)	.	.	.	4f\	-son	.	4a\	-son
8C/	.	.	.	.	.	.	.	.	.	.	.	.
8FF/	.	.	.	4FF/	-son	.	.	4r	.	.	4r	.
8F\J	.	.	.	.	.	.	.	.	.	.	.	.
!LO:LB:g=original	!	!	!	!	!	!	!	!	!	!	!LO:LB:g=original	!
=31	=31	=31	=31	=31	=31	=31	=31	=31	=31	=31	=31	=31
*tremolo	*	*	*	*	*	*	*	*	*	*	*	*
8D/L	.	2.ryy	.	4D/	Chri-	2.ryy	.	(4.a\	Chri-	.	(4.ff\	Chri-
8D/	.	.	.	.	.	.	.	.	.	.	.	.
8D/	.	.	.	4r	.	.	.	.	.	.	.	.
8D/	.	.	.	.	.	.	.	16g\LL	.	.	16ee\LL	.
.	.	.	.	.	.	.	.	16f\JJ)	.	.	16dd\JJ)	.
!	!	!	!	!LO:LB:g=original	!	!	!	!LO:LB:g=original	!	!	!	!
=-	=-	=-	=-	=-	=-	=-	=-	=-	=-	=-	=-	=-
8D/	.	.	.	8D/	ste	.	.	8e\	-ste	.	8cc\	-ste
8D/J	.	.	.	8D/	E-	.	.	8d\	E-	.	8bn\	E-
*Xtremolo	*	*	*	*	*	*	*	*	*	*	*	*
=32	=32	=32	=32	=32	=32	=32	=32	=32	=32	=32	=32	=32
4C/	.	2.ryy	.	4r	.	2.ryy	.	8f\L	-lei-	.	(8dd\L	-lei-
.	.	.	.	.	.	.	.	8e\J	.	.	8cc\J)	.
8E\L	.	.	.	4C/	lei-	.	.	4e\	-son	.	4cc\	-son
8G\J	.	.	.	.	.	.	.	.	.	.	.	.
4c\	.	.	.	4c\	-son	.	.	4r	.	.	4r	.
=33	=33	=33	=33	=33	=33	=33	=33	=33	=33	=33	=33	=33
!	!LO:DY:b	!	!	!	!	!	!	!	!	!	!	!
8qqFF/	fp	.	.	.	.	.	.	.	.	.	.	.
*tremolo	*	*	*	*	*	*	*	*	*	*	*	*
8F\L	.	2.ryy	.	4r	.	2.ryy	.	8g\L	Chri-	.	(8b-\L	Chri-
8F\	.	.	.	.	.	.	.	8f\J	.	.	8a\J)	.
8F\	.	.	.	4F\	Chri-	.	.	4f\	-(ste)	.	4a\	-(ste)
8F\	.	.	.	.	.	.	.	.	.	.	.	.
8F\	.	.	.	4FF/	-ste	.	.	8.r	.	.	8.r	.
8F\J	.	.	.	.	.	.	.	.	.	.	.	.
*Xtremolo	*	*	*	*	*	*	*	*	*	*	*	*
.	.	.	.	.	.	.	.	16a\	E-	.	16ff\	E-
=34	=34	=34	=34	=34	=34	=34	=34	=34	=34	=34	=34	=34
.	.	.	.	.	.	.	.	8qqcc/	.	.	8qqee/	.
*	*	*	*	*	*	*	*	*Xtuplet	*	*	*Xtuplet	*
8BB-/L	.	2.ryy	.	4BB-/	E-	2.ryy	.	12b-\L	-lei-	.	12dd\L	-lei-
.	.	.	.	.	.	.	.	12a\	.	.	12cc\	.
8BB-/J	.	.	.	.	.	.	.	.	.	.	.	.
.	.	.	.	.	.	.	.	12g\J	.	.	12b-\J	.
*tremolo	*	*	*	*	*	*	*	*	*	*	*	*
8C/L	.	.	.	2C/	-lei-	.	.	4f\	.	.	4a\	.
8C/	.	.	.	.	.	.	.	.	.	.	.	.
8C/	.	.	.	.	.	.	.	4e\	.	.	4g\	.
8C/J	.	.	.	.	.	.	.	.	.	.	.	.
*Xtremolo	*	*	*	*	*	*	*	*	*	*	*	*
=35	=35	=35	=35	=35	=35	=35	=35	=35	=35	=35	=35	=35
.	.	.	.	.	.	.	.	.	.	.	(8qqfM/	.
4FF/	.	2.ryy	.	(8F\L	.	2.ryy	.	8a\L	.	.	2.ff\)	.
.	.	.	.	8E\	.	.	.	8g\	.	.	.	.
4F\	.	.	.	8F\	.	.	.	8a\	.	.	.	.
.	.	.	.	8G\	.	.	.	8b-\	.	.	.	.
4r	.	.	.	8A\	.	.	.	8a\	.	.	.	.
.	.	.	.	8E\J)	.	.	.	8g\J	.	.	.	.
!	!	!	!	!LO:PB:g=original	!	!	!	!	!	!	!	!
=36	=36	=36	=36	=36	=36	=36	=36	=36	=36	=36	=36	=36
.	.	.	.	.	.	.	.	.	.	.	(8qqfM/	.
4F\	.	2.ryy	.	(8F\L	.	2.ryy	.	8a\L	.	.	2.ff\)	.
.	.	.	.	8E\	.	.	.	8g\	.	.	.	.
4FF/	.	.	.	8F\	.	.	.	8a\	.	.	.	.
.	.	.	.	8G\	.	.	.	8b-\	.	.	.	.
4r	.	.	.	8A\	.	.	.	8cc\	.	.	.	.
.	.	.	.	8F\J)	.	.	.	8a\J	.	.	.	.
=37	=37	=37	=37	=37	=37	=37	=37	=37	=37	=37	=37	=37
8BB-/L	.	2.ryy	.	4B-\	.	2.ryy	.	8a\L	.	.	(16cc#X\LL	.
.	.	.	.	.	.	.	.	.	.	.	16dd\	.
8BB-/J	.	.	.	.	.	.	.	8b-\J	.	.	16cc#\	.
.	.	.	.	.	.	.	.	.	.	.	16b-\JJ)	.
!	!	!	!	!	!	!	!	!LO:LB:g=original	!	!	!LO:LB:g=original	!
=-	=-	=-	=-	=-	=-	=-	=-	=-	=-	=-	=-	=-
*tremolo	*	*	*	*	*	*	*	*	*	*	*	*
8C/L	.	.	.	(4c\	.	.	.	4a\	.	.	4f/	.
8C/	.	.	.	.	.	.	.	.	.	.	.	.
8C/	.	.	.	4C/)	.	.	.	4g\	.	.	4e/	.
8C/J	.	.	.	.	.	.	.	.	.	.	.	.
*Xtremolo	*	*	*	*	*	*	*	*	*	*	*	*
=38	=38	=38	=38	=38	=38	=38	=38	=38	=38	=38	=38	=38
4F\	.	2.ryy	.	4F\	.	2.ryy	.	2.a\	son	.	2.f/	-son
4FF/	.	.	.	4FF/	-son	.	.	.	.	.	.	.
!LO:TX:b:i:t=Volti	!	!	!	!	!	!	!	!	!	!	!	!
4r;	.	.	.	4r	.	.	.	.	.	.	.	.
!LO:PB:g=original	!	!	!	!	!	!	!	!	!	!	!	!
=39||	=39||	=39||	=39||	=39||	=39||	=39||	=39||	=39||	=39||	=39||	=39||	=39||
*k[]	*	*k[]	*	*k[]	*	*k[]	*	*k[]	*	*	*k[]	*
*M2/2	*	*M2/2	*	*M2/2	*	*M2/2	*	*M2/2	*	*	*M2/2	*
*met(c|)	*	*met(c)	*	*met(c|)	*	*met(c|)	*	*met(c|)	*	*	*met(c|)	*
!LO:TX:a:t=Allegtho.	!LO:DY:b	!LO:TX:a:t=Allegto.	!	!LO:TX:a:t=Allegto.	!	!	!	!LO:TX:a:t=Allegto.	!	!	!LO:TX:a:t=Allegto.	!
4C/	f	1C	.	(4C/	Ky-	2G/	Ky-	2e\	Ky-	.	2cc\	Ky-
4D/	.	.	.	4D/	.	.	.	.	.	.	.	.
4E/	.	.	.	4E/	-ri-	2G/	-rie	2e\	-ri-	.	2cc\	-ri-
4C/	.	.	.	4C/)	.	.	.	.	.	.	.	.
=40	=40	=40	=40	=40	=40	=40	=40	=40	=40	=40	=40	=40
4D\	.	2GG/	.	(4D\	-e	2d\	E-	1f	-e	.	1b	-e
4F\	.	.	.	4F\)	.	.	.	.	.	.	.	.
!	!	!	!	!LO:LB:g=original	!	!	!	!	!	!	!	!
=-	=-	=-	=-	=-	=-	=-	=-	=-	=-	=-	=-	=-
4G\	.	2G\	.	(4G\	E-	4B\	.	.	.	.	.	.
4F\	.	.	.	4F\)	.	4d\	.	.	.	.	.	.
=41	=41	=41	=41	=41	=41	=41	=41	=41	=41	=41	=41	=41
2C/	.	4C/	.	2C/	-lei-	1G	-lei-	4e\	E-	.	(4cc\	E-
.	.	4E\	.	.	.	.	.	4f\	.	.	4dd\	.
2c\	.	4G\	.	2c\	.	.	.	4g\	.	.	4ee\	.
.	.	4c\	.	.	.	.	.	4e\	.	.	4cc\)	.
=42	=42	=42	=42	=42	=42	=42	=42	=42	=42	=42	=42	=42
2G\	.	4G/	.	2G\	.	(4B\	.	2d\	-lei-	.	(4dd\	-lei-
.	.	4D/	.	.	.	4c\)	.	.	.	.	4ee\	.
!	!	!	!	!	!	!	!	!	!	!LO:DY:a	!	!
2GG/	.	4BB/	.	2GG/	.	(4d\	son	2g\	.	f	4ff\	.
.	.	4GG/	.	.	.	4B\)	.	.	.	.	4dd\)	.
=43	=43	=43	=43	=43	=43	=43	=43	=43	=43	=43	=43	=43
4c\	.	4C/	.	4C/	-son	2G/	Ky-	4g\	.	.	2ee\	-son
4G\	.	4E\	.	(4G\	Ky-	.	.	4e\	.	.	.	.
!LO:LB:g=original	!	!LO:LB:g=original	!	!	!	!	!	!	!	!	!	!
=-	=-	=-	=-	=-	=-	=-	=-	=-	=-	=-	=-	=-
4E\	.	4ryy	.	4E\	.	2G/	-ri-	4g\	.	.	2ee\	E-
4C/	.	4c\	.	4c\)	-ri-	.	.	4e\	.	.	.	.
=44	=44	=44	=44	=44	=44	=44	=44	=44	=44	=44	=44	=44
4F\	.	2D/	.	(4F\	-e	(4A\	-e	2.d\	.	.	2a\	-lei-
4G\	.	.	.	4G\)	.	4B\)	.	.	.	.	.	.
!	!	!	!	!	!	!LO:LB:g=original	!	!	!	!	!	!
=-	=-	=-	=-	=-	=-	=-	=-	=-	=-	=-	=-	=-
4A\	.	2GG/	.	(4A\	E-	(4c\	E-	.	.	.	4cc\	.
4B\	.	.	.	4B\)	.	4d\)	.	4f\	.	.	4dd\	.
!	!	!	!	!	!	!	!	!	!	!	!LO:LB:g=original	!
=45	=45	=45	=45	=45	=45	=45	=45	=45	=45	=45	=45	=45
*	*	*tremolo	*	*	*	*	*	*	*	*	*	*
!	!	!LO:TX:t=P:problem:tremolo na 1c, 1A, 1F	!	!	!	!	!	!	!	!	!	!
!	!	!LO:TX:t=....	!	!	!	!	!	!	!	!	!	!
2c\	.	4c\	.	2c\	-lei-	2c\	-lei-	4g\	.	.	4ee\	.
.	.	4c\	.	.	.	.	.	4g\	.	.	4ee\	.
2C/	.	4c\	.	2C/	-son	2c\	-son	4f#X\	.	.	4dd#X\	.
.	.	4c\	.	.	.	.	.	4g\	.	.	4ee\	.
!	!	!	!	!	!	!	!	!LO:LB:g=original	!	!	!	!
=46	=46	=46	=46	=46	=46	=46	=46	=46	=46	=46	=46	=46
!LO:N:vis=8	!	!LO:TX:t=....	!	!	!	!	!	!	!	!	!	!
(<4C/	.	4A\	.	2c\	Ky-	(4e\	E-	1g	-son	.	4cc\	.
2c\	.	4A\	.	.	.	4e\	.	.	.	.	4cc\	.
!	!	!	!	!LO:LB:g=original	!	!	!	!	!	!	!	!
=-	=-	=-	=-	=-	=-	=-	=-	=-	=-	=-	=-	=-
.	.	4A\	.	2c\	-ri-	4d#X\	.	.	.	.	4b\	.
!LO:N:vis=8	!	!	!	!	!	!	!	!	!	!	!	!
4c\)	.	4A\	.	.	.	4e\)	.	.	.	.	4cc\	.
=47	=47	=47	=47	=47	=47	=47	=47	=47	=47	=47	=47	=47
!LO:N:vis=8	!	!LO:TX:t=....	!	!	!	!	!	!	!	!	!	!
(>4FF/	.	4F\	.	2F\	-e	(4c\	-lei-	1r	.	.	4a\	.
2F\	.	4F\	.	.	.	4c\	.	.	.	.	4a\	.
.	.	4F\	.	2F\	E-	4B\	.	.	.	.	4g\	.
!LO:N:vis=8	!	!	!	!	!	!	!	!	!	!	!	!
4F\)	.	4F\	.	.	.	4c\)	.	.	.	.	4a\	.
*	*	*Xtremolo	*	*	*	*	*	*	*	*	*	*
=48	=48	=48	=48	=48	=48	=48	=48	=48	=48	=48	=48	=48
4D\	.	4d\	.	(4D\	-lei-	1r	.	(4fn\	E-	.	2f/	-son
4F\	.	4A\	.	4F\	.	.	.	4a\)	.	.	.	.
4A\	.	4F\	.	4A\	.	.	.	(4f\	-lei-	.	2ff\	E-
4d\	.	4D\	.	4d\)	.	.	.	4d\)	.	.	.	.
=49	=49	=49	=49	=49	=49	=49	=49	=49	=49	=49	=49	=49
4G/	.	2GG/	.	2G\	.	4B\	.	2g\	-son	.	4dd\	-lei-
4D/	.	.	.	.	.	4c\	.	.	.	.	4cc\	.
4BB/	.	2G\	.	2GG/	.	4d\	.	2g\	E-	.	4b\	.
4GG/	.	.	.	.	.	4B\	.	.	.	.	4dd\	.
!LO:LB:g=original	!	!	!	!	!	!LO:LB:g=original	!	!	!	!	!	!
=50	=50	=50	=50	=50	=50	=50	=50	=50	=50	=50	=50	=50
4C/	.	4c\	.	4C/	-son	4c\	.	2g\	-lei-	.	2ee\	-son
4E\	.	4G\	.	(4E\	.	4G/	.	.	.	.	.	.
4G\	.	4E\	.	4G\	E-	4E/	.	2e\	.	.	2cc\	E-
4c\	.	4C/	.	4c\)	.	4C/	.	.	.	.	.	.
!	!	!LO:LB:g=original	!	!	!	!	!	!	!	!	!	!
=51	=51	=51	=51	=51	=51	=51	=51	=51	=51	=51	=51	=51
4F\	.	2ryy	.	(4F\	-lei-	2A/	.	1f	.	.	1dd	-lei-
4F\	.	.	.	4D\	.	.	.	.	.	.	.	.
4G\	.	2G\	.	4G\	.	2B/	.	.	.	.	.	.
4GG/	.	.	.	4GG/)	.	.	.	.	.	.	.	.
=52	=52	=52	=52	=52	=52	=52	=52	=52	=52	=52	=52	=52
!	!	!LO:TX:b:Bi:t=Volti	!	!	!	!LO:TX:b:B:t=Volti Subito	!	!	!	!	!	!
0C	.	0C	.	0C	-son	0c	-son	0g	son	.	0ee	son
==	==	==	==	==	==	==	==	==	==	==	==	==
*-	*-	*-	*-	*-	*-	*-	*-	*-	*-	*-	*-	*-
!!!system-decoration: [(s1,s2,s3,s4)][(s5,s6)]
!!!RDF**kern: < = below
!!!RDF**kern: > = above
!!!RDF**kern: | = vertical stroke
!!!ENC:Berenika Jozajtis
!!!END:2021-07-07
!!!ENC: Marta Chmielewska
!!!END: 2021-08-03
